X:1
T:The Bold Princess Royal
M:3/4
L:1/4
K:C
 C3/4 D/4| G G G| A3/4 G/4G/4 G3/4 E| D C C| C2 E3/4 E/4| D D E| F E D|\
 C G ^F| G2E/2-F/2| G E G| A3/4- B/4 c A3/4 A/4|G/2-F/2 E C| D2 C3/4 D/4|\
 E A A3/4 A/4| A G B,| E C C| C2||

